X: 8
T: Saint Anne's Reel
B: ralph
B: begged borrowed and stolen
B: steve tunes
M:4/4
L:1/8
Q: 1/4=100
K:Dmaj
V:1 
de|:"D" f2fg fedB| A2F2F2A2 |"G" B2GA BcdB|"D"A2F2 F2de|
f2fg fedB| A2F2F2A2 |"G" B2d2 "A"cdec|1 "D" d2de d2de:|2 "D" d2de d2ag|]
|:"D" f2d2 defg | "Em" a2gf g2gf | "A" edcB Aceg|"D"b2a2 a2g2|
"Bm"f2d2 defg|"Em"a2gf g2gf|"A"edcB ABce|1"D"f2f2 d2ag:|2"D"f2"A"d2"D"d2z2|]
% abcbook-tune_id 6298c2870cd9109e70d2a5c2


% abcbook-boost 0
% abcbook-tablature 
% abcbook-transpose 
% abcbook-lastupdated 1665416941261
% abcbook-soundfonts 
% abcbook-repeats 1


